X:1
T:Title
%%score { 1 | 2 }
L:1/8
Q:1/4=100
M:4/4
K:Ab
V:1 treble nm="Grand Piano"
V:2 bass 
V:1
 [CE]4 [CF]2 [CE]2 | [DE] [DG]2 B d4 | E4 F2 E2 | [CE] [CA]2 c e4 | d3 c B=A B2 | %5
w: Charles~Coller * *|||||
 [=Ec]3 [EB] AG A2 | [Ae]2 [Ae]4 [EG]2 | [CEA]6 z2 |] %8
w: |||
V:2
 [A,,A,]4 [A,,A,]2 [=A,,_G,]2 | [B,,G,] [B,,G,]2 [E,G,D] [E,G,E]4 | [E,G,D]4 [E,G,D]2 [E,G,D]2 | %3
 [A,,A,] [A,,A,]2[K:treble] [A,E] [A,CA]4 | [E,G,E]3 [E,A,E] [E,G,D][E,_G,C] [E,=G,D]2 | %5
 [C,G,]3 [C,C] [F,CF][F,B,F] [F,CF]2 | [E,C]2 [E,C]4 [E,D]2 | [A,,A,]6 z2 |] %8

